src/components/00-materials/images-raw/Hand Cross.svg

<svg width="96" height="96" viewBox="0 0 96 96" fill="none" xmlns="http://www.w3.org/2000/svg">
<path d="M43.36 61.39L52.68 62.69C53.4136 62.785 54.1564 62.785 54.89 62.69H55.29C56.0462 62.4509 56.7142 61.9924 57.2092 61.3727C57.7042 60.7531 58.0038 60.0003 58.07 59.21C58.15 58.1533 57.8074 57.1081 57.1175 56.3037C56.4275 55.4994 55.4466 55.0018 54.39 54.92L41.54 53.26C39.3319 52.9779 37.0888 53.1816 34.9676 53.857C32.8465 54.5324 30.8985 55.6631 29.26 57.17L21.48 64.32L20.91 64.75M62 23H54V15C54 14.7348 53.8947 14.4804 53.7071 14.2929C53.5196 14.1054 53.2653 14 53 14H43C42.7348 14 42.4805 14.1054 42.2929 14.2929C42.1054 14.4804 42 14.7348 42 15V23H34C33.7348 23 33.4805 23.1054 33.2929 23.2929C33.1054 23.4804 33 23.7348 33 24V34C33 34.2652 33.1054 34.5196 33.2929 34.7071C33.4805 34.8946 33.7348 35 34 35H42V43C42 43.2652 42.1054 43.5196 42.2929 43.7071C42.4805 43.8946 42.7348 44 43 44H53C53.2653 44 53.5196 43.8946 53.7071 43.7071C53.8947 43.5196 54 43.2652 54 43V35H62C62.2653 35 62.5196 34.8946 62.7071 34.7071C62.8947 34.5196 63 34.2652 63 34V24C63 23.7348 62.8947 23.4804 62.7071 23.2929C62.5196 23.1054 62.2653 23 62 23Z" stroke="#00008F" stroke-width="2" stroke-linecap="round" stroke-linejoin="round"/>
<path d="M38.61 72.6899C39.29 72.6899 54.19 75.5799 54.19 75.5799C55.8457 75.9 57.5613 75.5897 59 74.7099L70.74 67.4999L82.29 56.5999C82.7015 56.2117 82.9533 55.6837 82.9958 55.1195C83.0383 54.5553 82.8686 53.9955 82.52 53.5499C82.1971 53.1316 81.7946 52.7813 81.3356 52.5194C80.8767 52.2575 80.3703 52.0892 79.8459 52.0241C79.3215 51.959 78.7894 51.9985 78.2803 52.1402C77.7712 52.282 77.2953 52.5232 76.88 52.8499L67.33 60.2899L55.33 62.6699M38.61 72.6899C37.4353 72.665 36.2914 73.0664 35.39 73.8199L31.53 77.0999L38.61 72.6899ZM19.94 63.6199C19.7693 63.4203 19.5609 63.2563 19.3268 63.1372C19.0927 63.0181 18.8374 62.9463 18.5756 62.9258C18.3137 62.9054 18.0504 62.9368 17.8006 63.0181C17.5509 63.0995 17.3196 63.2292 17.12 63.3999L13.7 66.2999C13.2998 66.6444 13.0521 67.1332 13.0109 67.6596C12.9697 68.186 13.1383 68.7074 13.48 69.1099L25.54 83.2999C25.7107 83.4996 25.9191 83.6636 26.1532 83.7827C26.3873 83.9018 26.6426 83.9736 26.9044 83.994C27.1663 84.0144 27.4296 83.9831 27.6794 83.9017C27.9291 83.8204 28.1604 83.6907 28.36 83.5199L31.78 80.6199C32.1802 80.2755 32.4279 79.7867 32.4691 79.2603C32.5103 78.7339 32.3417 78.2125 32 77.8099L19.94 63.6199Z" stroke="#00008F" stroke-width="2" stroke-linecap="round" stroke-linejoin="round"/>
</svg>

<svg width="96" height="96" viewBox="0 0 96 96" fill="none" xmlns="http://www.w3.org/2000/svg"><path d="M43.36 61.39l9.32 1.3a8.604 8.604 0 002.21 0h.4a4 4 0 002.78-3.48 4 4 0 00-3.68-4.29l-12.85-1.66a15.28 15.28 0 00-12.28 3.91l-7.78 7.15-.57.43M62 23h-8v-8a1 1 0 00-1-1H43a1 1 0 00-1 1v8h-8a1 1 0 00-1 1v10a1 1 0 001 1h8v8a1 1 0 001 1h10a1 1 0 001-1v-8h8a1 1 0 001-1V24a1 1 0 00-1-1z" stroke="#00008F" stroke-width="2" stroke-linecap="round" stroke-linejoin="round"/><path d="M38.61 72.69c.68 0 15.58 2.89 15.58 2.89a6.76 6.76 0 004.81-.87l11.74-7.21 11.55-10.9a2.27 2.27 0 00.23-3.05 4.002 4.002 0 00-5.64-.7l-9.55 7.44-12 2.38M38.61 72.69a4.86 4.86 0 00-3.22 1.13l-3.86 3.28 7.08-4.41zm-18.67-9.07a2 2 0 00-2.82-.22l-3.42 2.9a2 2 0 00-.22 2.81L25.54 83.3a2 2 0 002.82.22l3.42-2.9a2 2 0 00.22-2.81L19.94 63.62z" stroke="#00008F" stroke-width="2" stroke-linecap="round" stroke-linejoin="round"/></svg>
